X:557
T: Mawangu
N: C1976
O: China,Hainan
S: II, 385, 1)]
R: Xiaodiao]
M: 2/4
L: 1/16
K: E
G4e4 | G4e4 | c2e2e2G2 | B8 |
c2e2c2B2 | A2G2F4 | G2B2G2C2 | E8 |
E3CE2F2 | G4B4 | G2B2G2C2 | E8

@@@ Tune index: 7112
